X: 1
T: Clean Pease Strae
M: 4/4
L: 1/8
R: reel
K: Dmix
(3AB^c|d2fd gefd|eAAB c2BA|d2fd gefd|egfe d2:|
fg|afdf afdf|eAAB c2fg|afdf afdf|egfe d2fg|
afdf afdf|eAAB c2fg|afge fde^c|Agfe d2||
